!!!OTL: Leanbh an chlamhr&szlig;in, S. 26
!!!id: I0532
**kern
*clefG2
*k[f#c#]
*D:
{16f#
16f#
=1
8f#
8e
8f#
8d
8e
8d
16f#
16e
8.d}
=2
{16d
=3
8f#
8e
8f#
8d
8e
8d
8g
8e}
=4
{8c#
=5
8f#
8e
8f#
8d
8e
8d
16f#
16e
8d}
=6
{16d
16d
=7
8e
8f#
8e
8cc#
8b
8a
8g
8.e}
=8
{16c#
=9
8f#
8d
8f#
8a
8a
8dd
16a
16a
8.a}
=10
{16dd
=11
8f#
8d
8f#
8a
8a
16ee
16dd
8g
8.e}
=12
{16c#
=13
8f#
8d
8f#
8a
8a
8dd
8a
8.g
16f#
=14
16e
16g
8g
8e
8cc#
8b
8a
8g
8e}
==
*-
!!!minrhy: 16
!!!meters: 9/8 ]  ZZ[7
!!!cut: Leanbh an chlamhr&szlig;in, S. 26
!!!reg: Irland
!!!trd: O'SULLIVAN, Donal: Song of the Irish
!!!rhy1: XX  X_X_X_X_X_X_XXX_.
!!!rhy2: X  X_X_X_X_X_X_X_X_
!!!key: I0532  16  D 9/8 ]  ZZ[7
!!!mod: HEPTATONIK IONISCH]  AMBITUS[10b
!!!kad: 1212522
!!!akz: 313_314_313_274_355_354_355274_
!!!fot: 'a__aw_av_b__c__cw_cv_
!!!for: 'a__b__av_bv_av_c__bw_
!!!fok: 'Sd_Ma_Ma_^a_Ma_Sd_Ma_
!! PHRAS[AUFTAKTIG]
!!!fkt: Schlaflied
!! IRISCHE V
!! PR[24] 2K[12] 2G[9] 3K[6] 3G[12] 4A[3] 4Ü[0] 5A[0] 6K[0] 6G[0]
!! 7K[0] 7G[0] 8A[0] MEHR[0] SI[41] ABS[34] SR[21] SP[21]
!! ST[8] 2k[9] 2g[12] 3k[3] 3g[6] 4d[6] 4ü[0] 5d[0] 6k[0] 6g[0]
!! 7k[0] 7g[0] 8d[0] mehr[0] si[35] dm[+6] sr[21] sp[15]
!! 1F[66] 2F[31] 3F[0] 4F[0] LF[0] 2P[3] 3P[0] 4P[0] TRI[0] DF[3] AB[35]
!! TF[0] U3K[0] U3[0] U4[0] U4Ü[0] U5[6] U6K[0] U6[0] U7K[0] U7[9]
!! N1[31] N2K[0] N2[14] N3K[0] N3[17] N4[11] N4Ü[0] N5[11] N6K[0] N6[0]
!!!n7k: 0] N7[0] O1[0] O2K[0] O2[0] O3K[0] O3[0] HÖ[0
!!!RNB: symbol: &szlig; = sz ligature (UTF-8: ÃŸ)
